**kern	**silbe	**kern	**silbe	**harmony	**phrase	**leadinstrument	**rhyme	**timestamp	**harte
*ICvox	*	*ICvox	*	*M4/4	*	*	*	*	*M4/4
*VRlead	*	*VRharmonize*VRresponse	*	*	*	*	*	*	*
*Hstimme	*	*Nstimme	*	*	*	*	*	*	*
*g:	*	*g:	*	*g:	*g:	*g:	*	*g:	*g:
*M4/4	*	*M4/4	*	*	*	*	*	*	*
*clefG2	*	*clefG2	*	*	*	*	*	*	*
r;	.	r;	.	1r;	.	r	.	0	N.C.
=1	=1	=1	=1	=1	=1	=1	=1	=1	=1
*>Letter>A	*>Letter>A	*>Letter>A	*>Letter>A	*>Letter>A	*>Letter>A	*>Letter>A	*>Letter>A	*>Letter>A	*>Letter>A
*>Label>Intro	*>Label>Intro	*>Label>Intro	*>Label>Intro	*>Label>Intro	*>Label>Intro	*>Label>Intro	*>Label>Intro	*>Label>Intro	*>Label>Intro
1r	.	1r	.	1N	newline	r	.	0.395	N.C.
=2	=2	=2	=2	=2	=2	=2	=2	=2	=2
1r	.	1r	.	1N	.	r	.	2.558	N.C.
=3	=3	=3	=3	=3	=3	=3	=3	=3	=3
*>Letter>B	*>Letter>B	*>Letter>B	*>Letter>B	*>Letter>B	*>Letter>B	*>Letter>B	*>Letter>B	*>Letter>B	*>Letter>B
*>Label>Interlude	*>Label>Interlude	*>Label>Interlude	*>Label>Interlude	*>Label>Interlude	*>Label>Interlude	*>Label>Interlude	*>Label>Interlude	*>Label>Interlude	*>Label>Interlude
1r	.	1r	.	1Gm	newline	trumpet	.	4.721	G:min
=4	=4	=4	=4	=4	=4	=4	=4	=4	=4
1r	.	1r	.	1FMm	.	trumpet	.	6.666	F:7
=5	=5	=5	=5	=5	=5	=5	=5	=5	=5
1r	.	1r	.	1E-MM	.	trumpet	.	8.61	E-:maj7
=6	=6	=6	=6	=6	=6	=6	=6	=6	=6
1r	.	1r	.	2Dm	.	trumpet	.	10.555	D:sus4
.	.	.	.	2DM	.	trumpet	.	11.527	D:maj
=7	=7	=7	=7	=7	=7	=7	=7	=7	=7
1r	.	1r	.	1Gm	newline	trumpet	.	12.499	G:min
=8	=8	=8	=8	=8	=8	=8	=8	=8	=8
1r	.	1r	.	1FMm	.	trumpet	.	14.43	F:7
=9	=9	=9	=9	=9	=9	=9	=9	=9	=9
1r	.	1r	.	1E-MM	.	trumpet	.	16.36	E-:maj7
=10	=10	=10	=10	=10	=10	=10	=10	=10	=10
1r	.	1r	.	1DMm	.	trumpet	.	18.29	D:7
=11	=11	=11	=11	=11	=11	=11	=11	=11	=11
*>Letter>C	*>Letter>C	*>Letter>C	*>Letter>C	*>Letter>C	*>Letter>C	*>Letter>C	*>Letter>C	*>Letter>C	*>Letter>C
*>Label>Verse	*>Label>Verse	*>Label>Verse	*>Label>Verse	*>Label>Verse	*>Label>Verse	*>Label>Verse	*>Label>Verse	*>Label>Verse	*>Label>Verse
8B-	Where	1r	.	1Gm	newline	voice	.	20.221	G:min
8A	can	.	.	.	.	.	.	.	.
8B-	you	.	.	.	.	.	.	.	.
8A	find	.	.	.	.	.	.	.	.
4B-	plea-	.	.	.	.	.	(A	.	.
8A	-sure_	.	.	.	.	.	a)	.	.
[8B-	Search	.	.	.	.	.	.	.	.
=12	=12	=12	=12	=12	=12	=12	=12	=12	=12
8B-]	_	1r	.	1Gm	.	voice	.	22.154	G:min
8A	the	.	.	.	.	.	.	.	.
8B-	world	.	.	.	.	.	.	.	.
8A	for	.	.	.	.	.	.	.	.
4B-	trea-	.	.	.	.	.	(A	.	.
4A	-sure	.	.	.	.	.	a)	.	.
=13	=13	=13	=13	=13	=13	=13	=13	=13	=13
8B-	Learn	1r	.	1Gm	.	voice	.	24.087	G:min
8A	scien-	.	.	.	.	.	.	.	.
8B-	-ce	.	.	.	.	.	.	.	.
8A	te-	.	.	.	.	.	.	.	.
4B-	-chno-	.	.	.	.	.	.	.	.
8c	-lo-	.	.	.	.	.	.	.	.
[8d	-gy	.	.	.	.	.	B	.	.
=14	=14	=14	=14	=14	=14	=14	=14	=14	=14
8d]	_	1r	.	1B-M	.	voice	.	26.02	B-:maj
4.d	_	.	.	.	.	.	.	.	.
2r	.	.	.	.	.	.	.	.	.
=15	=15	=15	=15	=15	=15	=15	=15	=15	=15
8e-	Where	1r	.	1Cm	newline	voice	.	27.953	C:min
8d	can	.	.	.	.	.	.	.	.
8e-	you	.	.	.	.	.	.	.	.
8d	be-	.	.	.	.	.	.	.	.
4e-	-gin	.	.	.	.	.	.	.	.
8c	to	.	.	.	.	.	.	.	.
[8d	make	.	.	.	.	.	.	.	.
=16	=16	=16	=16	=16	=16	=16	=16	=16	=16
8d]	_	1r	.	1B-M	.	voice	.	29.88	B-:maj
8c	your	.	.	.	.	.	.	.	.
8d	dreams	.	.	.	.	.	.	.	.
8c	all	.	.	.	.	.	.	.	.
4d	come	.	.	.	.	.	.	.	.
4B-	true	.	.	.	.	.	.	.	.
=17	=17	=17	=17	=17	=17	=17	=17	=17	=17
8B-	On	1r	.	1Cmm	.	voice	.	31.806	C:min7
8G	the	.	.	.	.	.	.	.	.
8B-	land	.	.	.	.	.	.	.	.
8G	or	.	.	.	.	.	.	.	.
4B-	on	.	.	.	.	.	.	.	.
8c	the	.	.	.	.	.	.	.	.
[8A	sea	.	.	.	.	.	B	.	.
=18	=18	=18	=18	=18	=18	=18	=18	=18	=18
8A]	_	1r	.	1DM	.	voice	.	33.733	D:maj
4.A	_	.	.	.	.	.	.	.	.
2r	.	.	.	.	.	.	.	.	.
=19	=19	=19	=19	=19	=19	=19	=19	=19	=19
8B-	Where	1r	.	1Gm	newline	voice	.	35.659	G:min
8A	can	.	.	.	.	.	.	.	.
8B-	you	.	.	.	.	.	.	.	.
8A	learn	.	.	.	.	.	.	.	.
4B-	to	.	.	.	.	.	.	.	.
8A	fly	.	.	.	.	.	C	.	.
[8B-	Play	.	.	.	.	.	.	.	.
=20	=20	=20	=20	=20	=20	=20	=20	=20	=20
8B-]	_	1r	.	1Gm	.	voice	.	37.589	G:min
8A	in	.	.	.	.	.	.	.	.
8B-	sports	.	.	.	.	.	.	.	.
8A	and	.	.	.	.	.	.	.	.
4B-	skin	.	.	.	.	.	.	.	.
4A	dive	.	.	.	.	.	C	.	.
=21	=21	=21	=21	=21	=21	=21	=21	=21	=21
8B-	Stu-	1r	.	1Gm	.	voice	.	39.519	G:min
8A	-dy	.	.	.	.	.	.	.	.
8B-	o-	.	.	.	.	.	.	.	.
8A	-cea-	.	.	.	.	.	.	.	.
4B-	-nog-	.	.	.	.	.	.	.	.
8c	-ra-	.	.	.	.	.	.	.	.
[8d	-phy	.	.	.	.	.	B	.	.
=22	=22	=22	=22	=22	=22	=22	=22	=22	=22
8d]	_	1r	.	1B-M	.	voice	.	41.449	B-:maj
4.d	_	.	.	.	.	.	.	.	.
2r	.	.	.	.	.	.	.	.	.
=23	=23	=23	=23	=23	=23	=23	=23	=23	=23
8e-	Sign	1r	.	1Cm	newline	voice	.	43.379	C:min
8d	up	.	.	.	.	.	.	.	.
8e-	for	.	.	.	.	.	.	.	.
8d	the	.	.	.	.	.	.	.	.
4e-	big	.	.	.	.	.	.	.	.
8c	band	.	.	.	.	.	D	.	.
[8d	Or	.	.	.	.	.	.	.	.
=24	=24	=24	=24	=24	=24	=24	=24	=24	=24
8d]	_	1r	.	1B-M	.	voice	.	45.306	B-:maj
8c	sit	.	.	.	.	.	.	.	.
8d	in	.	.	.	.	.	.	.	.
8c	the	.	.	.	.	.	.	.	.
4d	grand-	.	.	.	.	.	(D	.	.
4B-	-stand	.	.	.	.	.	d)	.	.
=25	=25	=25	=25	=25	=25	=25	=25	=25	=25
8B-	When	1r	.	1Cmm	.	voice	.	47.233	C:min7
8G	your	.	.	.	.	.	.	.	.
8B-	team	.	.	.	.	.	.	.	.
8G	and	.	.	.	.	.	.	.	.
4B-	o-	.	.	.	.	.	.	.	.
8c	-thers	.	.	.	.	.	.	.	.
[8A	meet	.	.	.	.	.	B	.	.
=26	=26	=26	=26	=26	=26	=26	=26	=26	=26
8A]	_	2r	.	1DM	.	voice	.	49.16	D:maj
4.A	_	.	.	.	.	.	.	.	.
2r	.	4r	.	.	.	.	.	.	.
.	.	8.d	In	.	.	.	.	.	.
.	.	16c	the	.	.	.	.	.	.
=27	=27	=27	=27	=27	=27	=27	=27	=27	=27
*>Letter>D	*>Letter>D	*>Letter>D	*>Letter>D	*>Letter>D	*>Letter>D	*>Letter>D	*>Letter>D	*>Letter>D	*>Letter>D
*>Label>Chorus	*>Label>Chorus	*>Label>Chorus	*>Label>Chorus	*>Label>Chorus	*>Label>Chorus	*>Label>Chorus	*>Label>Chorus	*>Label>Chorus	*>Label>Chorus
2r	.	4B	Na-	1GMM	newline	voice	.	51.087	G:maj7
.	.	4G	-vy	.	.	.	b	.	.
8r	.	2r	.	.	.	.	.	.	.
8D	Yes	.	.	.	.	.	.	.	.
8D	you	.	.	.	.	.	.	.	.
8D	can	.	.	.	.	.	.	.	.
=28	=28	=28	=28	=28	=28	=28	=28	=28	=28
8G	sail	2r	.	1GMM	.	voice	.	52.995	G:maj7
8A	the	.	.	.	.	.	.	.	.
16B	se-	.	.	.	.	.	.	.	.
8c	-ven	.	.	.	.	.	.	.	.
[16d	seas	.	.	.	.	.	B	.	.
4d]	_	4r	.	.	.	.	.	.	.
4r	.	8.c	In	.	.	.	.	.	.
.	.	16B	the	.	.	.	.	.	.
=29	=29	=29	=29	=29	=29	=29	=29	=29	=29
2r	.	4c	Na-	1Amm	.	voice	.	54.904	A:min7
.	.	4A	-vy	.	.	.	b	.	.
8r	.	2r	.	.	.	.	.	.	.
8D	Yes	.	.	.	.	.	.	.	.
8D	you	.	.	.	.	.	.	.	.
8D	can	.	.	.	.	.	.	.	.
=30	=30	=30	=30	=30	=30	=30	=30	=30	=30
8A	put	2r	.	1DM	.	voice	.	56.812	D:maj
8B	your	.	.	.	.	.	.	.	.
8c	mind	.	.	.	.	.	.	.	.
16d	at	.	.	.	.	.	.	.	.
[16e	ease	.	.	.	.	.	B	.	.
4e]	_	4r	.	.	.	.	.	.	.
4r	.	8.c	In	.	.	.	.	.	.
.	.	16B	the	.	.	.	.	.	.
=31	=31	=31	=31	=31	=31	=31	=31	=31	=31
2r	.	4c	Na-	1Amm	newline	voice	.	58.72	A:min7
.	.	4A	-vy	.	.	.	b	.	.
8r	.	2r	.	.	.	.	.	.	.
8D	Come	.	.	.	.	.	.	.	.
8D	on	.	.	.	.	.	.	.	.
8D	now	.	.	.	.	.	.	.	.
=32	=32	=32	=32	=32	=32	=32	=32	=32	=32
8A	peo-	2r	.	1DM	.	voice	.	60.628	D:maj
8B	-ple	.	.	.	.	.	.	.	.
16c	make	.	.	.	.	.	.	.	.
16d	a	.	.	.	.	.	.	.	.
[8e	stand	.	.	.	.	.	D	.	.
4e]	_	4r	.	.	.	.	.	.	.
4r	.	8.B	In	.	.	.	.	.	.
.	.	16A	the	.	.	.	.	.	.
=33	=33	=33	=33	=33	=33	=33	=33	=33	=33
2r	.	4B	Na-	1GM	.	voice	.	62.535	G:maj
.	.	4G	-vy	.	.	.	b	.	.
4r	.	4r	.	.	.	.	.	.	.
8g	Can't	8.d	In	.	.	.	.	.	.
8e	you	.	.	.	.	.	.	.	.
.	.	16c	the	.	.	.	.	.	.
=34	=34	=34	=34	=34	=34	=34	=34	=34	=34
8g	see	4B	Na-	1DM	.	voice	.	64.442	D:maj
8e	we	.	.	.	.	.	.	.	.
16g	need	4G	-vy	.	.	.	B	.	.
8g	a	.	.	.	.	.	.	.	.
[16e	hand	.	.	.	.	.	D	.	.
4e]	_	4r	.	.	.	.	.	.	.
4r	.	8.d	In	.	.	.	.	.	.
.	.	16c	the	.	.	.	.	.	.
=35	=35	=35	=35	=35	=35	=35	=35	=35	=35
2r	.	4B	Na-	1GMM	newline	voice	.	66.349	G:maj7
.	.	4G	-vy	.	.	.	b	.	.
8r	.	2r	.	.	.	.	.	.	.
8D	Come	.	.	.	.	.	.	.	.
8D	on	.	.	.	.	.	.	.	.
8D	pro-	.	.	.	.	.	.	.	.
=36	=36	=36	=36	=36	=36	=36	=36	=36	=36
8G	-tect	2r	.	1GMM	.	voice	.	68.26	G:maj7
8A	the	.	.	.	.	.	.	.	.
16B	mo-	.	.	.	.	.	.	.	.
16c	-ther	.	.	.	.	.	.	.	.
[8d	land	.	.	.	.	.	D	.	.
4d]	_	4r	.	.	.	.	.	.	.
4r	.	8.c	In	.	.	.	.	.	.
.	.	16B	the	.	.	.	.	.	.
=37	=37	=37	=37	=37	=37	=37	=37	=37	=37
2r	.	4c	Na-	1Amm	.	voice	.	70.171	A:min7
.	.	4A	-vy	.	.	.	b	.	.
8r	.	2r	.	.	.	.	.	.	.
8D	Come	.	.	.	.	.	.	.	.
8D	on	.	.	.	.	.	.	.	.
8D	and	.	.	.	.	.	.	.	.
=38	=38	=38	=38	=38	=38	=38	=38	=38	=38
8A	join	2r	.	1DM	.	voice	.	72.082	D:maj
8B	your	.	.	.	.	.	.	.	.
16c	fel-	.	.	.	.	.	.	.	.
16d	-low	.	.	.	.	.	.	.	.
[8e	man	.	.	.	.	.	D	.	.
4e]	_	4r	.	.	.	.	.	.	.
4r	.	8.c	In	.	.	.	.	.	.
.	.	16B	the	.	.	.	.	.	.
=39	=39	=39	=39	=39	=39	=39	=39	=39	=39
2r	.	4c	Na-	1Amm	newline	voice	.	73.993	A:min7
.	.	4A	-vy	.	.	.	b	.	.
8r	.	2r	.	.	.	.	.	.	.
8g	Come	.	.	.	.	.	.	.	.
8g	on	.	.	.	.	.	.	.	.
8e	peo	.	.	.	.	.	.	.	.
=40	=40	=40	=40	=40	=40	=40	=40	=40	=40
8g	ple,	2r	.	1DM	.	voice	.	75.91	D:maj
8e	and	.	.	.	.	.	.	.	.
16g	make	.	.	.	.	.	.	.	.
16g	a	.	.	.	.	.	.	.	.
[8e	stand	.	.	.	.	.	D	.	.
4e]	_	4r	.	.	.	.	.	.	.
4r	.	8.B	In	.	.	.	.	.	.
.	.	16A	the	.	.	.	.	.	.
=41	=41	=41	=41	=41	=41	=41	=41	=41	=41
4r	.	4B	Na-	1GM	.	voice	.	77.826	G:maj
8g	In	4G	-vy	.	.	.	b	.	.
16e	the	.	.	.	.	.	.	.	.
[16g	na-	.	.	.	.	.	.	.	.
8g]	_	4r	.	.	.	.	.	.	.
8e	-vy	.	.	.	.	.	b	.	.
4r	.	8.d	In	.	.	.	.	.	.
.	.	16c	the	.	.	.	.	.	.
=42	=42	=42	=42	=42	=42	=42	=42	=42	=42
4r	.	4B	Na-	1DM	.	voice	.	79.742	D:maj
8r	.	4G	-vy	.	.	.	b	.	.
4.g	aah	.	.	.	.	.	.	.	.
.	.	4r	.	.	.	.	.	.	.
4r	.	4r	.	.	.	.	.	.	.
=43	=43	=43	=43	=43	=43	=43	=43	=43	=43
*>Letter>A	*>Letter>A	*>Letter>A	*>Letter>A	*>Letter>A	*>Letter>A	*>Letter>A	*>Letter>A	*>Letter>A	*>Letter>A
*>Label>Trans	*>Label>Trans	*>Label>Trans	*>Label>Trans	*>Label>Trans	*>Label>Trans	*>Label>Trans	*>Label>Trans	*>Label>Trans	*>Label>Trans
1r	.	1r	.	1Gm	newline	voice	.	81.658	G:min
=44	=44	=44	=44	=44	=44	=44	=44	=44	=44
1r	.	1r	.	1N	.	voice	.	83.564	N.C.
=45	=45	=45	=45	=45	=45	=45	=45	=45	=45
1r	.	1r	.	1N	.	voice	.	85.47	N.C.
=46	=46	=46	=46	=46	=46	=46	=46	=46	=46
1r	.	1r	.	1N	.	voice	.	87.375	N.C.
=47	=47	=47	=47	=47	=47	=47	=47	=47	=47
*>Letter>C	*>Letter>C	*>Letter>C	*>Letter>C	*>Letter>C	*>Letter>C	*>Letter>C	*>Letter>C	*>Letter>C	*>Letter>C
*>Label>Verse	*>Label>Verse	*>Label>Verse	*>Label>Verse	*>Label>Verse	*>Label>Verse	*>Label>Verse	*>Label>Verse	*>Label>Verse	*>Label>Verse
8B-	If	1r	.	1Gm	newline	voice	.	89.281	G:min
8A	you	.	.	.	.	.	.	.	.
8B-	like	.	.	.	.	.	.	.	.
8A	ad-	.	.	.	.	.	.	.	.
4B-	-ven-	.	.	.	.	.	(E	.	.
8A	-ture	.	.	.	.	.	e)	.	.
[8B-	Don't	.	.	.	.	.	.	.	.
=48	=48	=48	=48	=48	=48	=48	=48	=48	=48
8B-]	_	1r	.	1Gm	.	voice	.	91.204	G:min
8A	you	.	.	.	.	.	.	.	.
8B-	wait	.	.	.	.	.	.	.	.
8A	to	.	.	.	.	.	.	.	.
4B-	en-	.	.	.	.	.	(E	.	.
4A	-ter	.	.	.	.	.	e)	.	.
=49	=49	=49	=49	=49	=49	=49	=49	=49	=49
8B-	The	1r	.	1Gm	.	voice	.	93.126	G:min
8A	re-	.	.	.	.	.	.	.	.
8B-	-cruit-	.	.	.	.	.	.	.	.
8A	-ing	.	.	.	.	.	.	.	.
4B-	of-	.	.	.	.	.	.	.	.
8c	-fice	.	.	.	.	.	.	.	.
[8d	fast	.	.	.	.	.	F	.	.
=50	=50	=50	=50	=50	=50	=50	=50	=50	=50
8d]	_	1r	.	1B-M	.	voice	.	95.049	B-:maj
4.d	_	.	.	.	.	.	.	.	.
2r	.	.	.	.	.	.	.	.	.
=51	=51	=51	=51	=51	=51	=51	=51	=51	=51
8e-	Don't	1r	.	1Cm	newline	voice	.	96.971	C:min
8d	you	.	.	.	.	.	.	.	.
8e-	he-	.	.	.	.	.	.	.	.
8d	-si-	.	.	.	.	.	.	.	.
4e-	-tate	.	.	.	.	.	G	.	.
8c	There	.	.	.	.	.	.	.	.
[8d	is	.	.	.	.	.	.	.	.
=52	=52	=52	=52	=52	=52	=52	=52	=52	=52
8d]	_	1r	.	1B-M	.	voice	.	98.897	B-:maj
8c	no	.	.	.	.	.	.	.	.
8d	need	.	.	.	.	.	.	.	.
8c	to	.	.	.	.	.	.	.	.
4d	wait	.	.	.	.	.	G	.	.
8G	They're	.	.	.	.	.	.	.	.
[8B-	si-	.	.	.	.	.	.	.	.
=53	=53	=53	=53	=53	=53	=53	=53	=53	=53
8B-]	_	1r	.	1Cmm	.	voice	.	100.822	C:min7
8G	-gning	.	.	.	.	.	.	.	.
8B-	up	.	.	.	.	.	.	.	.
8G	new	.	.	.	.	.	.	.	.
4B-	sea-	.	.	.	.	.	.	.	.
8c	-men	.	.	.	.	.	.	.	.
[8A	fast	.	.	.	.	.	F	.	.
=54	=54	=54	=54	=54	=54	=54	=54	=54	=54
8A]	_	1r	.	1DM	.	voice	.	102.747	D:maj
4.A	_	.	.	.	.	.	.	.	.
2r	.	.	.	.	.	.	.	.	.
=55	=55	=55	=55	=55	=55	=55	=55	=55	=55
8B-	May-	1r	.	1Gm	newline	voice	.	104.672	G:min
8A	-be	.	.	.	.	.	.	.	.
8B-	you	.	.	.	.	.	.	.	.
8A	are	.	.	.	.	.	.	.	.
4B-	too	.	.	.	.	.	.	.	.
8A	young	.	.	.	.	.	.	.	.
[8B-	To	.	.	.	.	.	.	.	.
=56	=56	=56	=56	=56	=56	=56	=56	=56	=56
8B-]	_	1r	.	1Gm	.	voice	.	106.597	G:min
8A	join	.	.	.	.	.	.	.	.
8B-	up	.	.	.	.	.	.	.	.
8A	to-	.	.	.	.	.	.	.	.
4B-	-day	.	.	.	.	.	G	.	.
4A	But	.	.	.	.	.	.	.	.
=57	=57	=57	=57	=57	=57	=57	=57	=57	=57
8B-	don't	1r	.	1Gm	.	voice	.	108.523	G:min
8A	you	.	.	.	.	.	.	.	.
8B-	wor-	.	.	.	.	.	.	.	.
8A	-ry	.	.	.	.	.	.	.	.
4B-	'bout	.	.	.	.	.	.	.	.
8c	a	.	.	.	.	.	.	.	.
[8d	thing	.	.	.	.	.	B	.	.
=58	=58	=58	=58	=58	=58	=58	=58	=58	=58
8d]	_	1r	.	1B-M	.	voice	.	110.448	B-:maj
4.d	_	.	.	.	.	.	.	.	.
2r	.	.	.	.	.	.	.	.	.
=59	=59	=59	=59	=59	=59	=59	=59	=59	=59
8e-	For	1r	.	1Cm	newline	voice	.	112.373	C:min
8d	I'm	.	.	.	.	.	.	.	.
8e-	sure	.	.	.	.	.	.	.	.
8d	there	.	.	.	.	.	.	.	.
4e-	will	.	.	.	.	.	.	.	.
8c	be	.	.	.	.	.	B	.	.
[8d	Al-	.	.	.	.	.	.	.	.
=60	=60	=60	=60	=60	=60	=60	=60	=60	=60
8d]	_	1r	.	1B-M	.	voice	.	114.297	B-:maj
8c	-ways	.	.	.	.	.	.	.	.
8d	a	.	.	.	.	.	.	.	.
8c	good	.	.	.	.	.	.	.	.
4d	na-	.	.	.	.	.	.	.	.
4B-	-vy	.	.	.	.	.	b	.	.
=61	=61	=61	=61	=61	=61	=61	=61	=61	=61
8B-	Pro-	1r	.	1Cmm	.	voice	.	116.221	C:min7
8G	-tec-	.	.	.	.	.	.	.	.
8B-	-ting	.	.	.	.	.	.	.	.
8G	the	.	.	.	.	.	.	.	.
4B-	land	.	.	.	.	.	.	.	.
8c	and	.	.	.	.	.	.	.	.
[8A	sea	.	.	.	.	.	B	.	.
=62	=62	=62	=62	=62	=62	=62	=62	=62	=62
8A]	_	2r	.	1DM	.	voice	.	118.144	D:maj
4.A	_	.	.	.	.	.	.	.	.
2r	.	4r	.	.	.	.	.	.	.
.	.	8.d	In	.	.	.	.	.	.
.	.	16c	the	.	.	.	.	.	.
=63	=63	=63	=63	=63	=63	=63	=63	=63	=63
*>Letter>D	*>Letter>D	*>Letter>D	*>Letter>D	*>Letter>D	*>Letter>D	*>Letter>D	*>Letter>D	*>Letter>D	*>Letter>D
*>Label>Chorus	*>Label>Chorus	*>Label>Chorus	*>Label>Chorus	*>Label>Chorus	*>Label>Chorus	*>Label>Chorus	*>Label>Chorus	*>Label>Chorus	*>Label>Chorus
2r	.	4B	Na-	1GMM	newline	voice	.	120.068	G:maj7
.	.	4G	-vy	.	.	.	b	.	.
8r	.	2r	.	.	.	.	.	.	.
8D	Yes	.	.	.	.	.	.	.	.
8D	you	.	.	.	.	.	.	.	.
8D	can	.	.	.	.	.	.	.	.
=64	=64	=64	=64	=64	=64	=64	=64	=64	=64
8G	sail	2r	.	1GMM	.	voice	.	121.976	G:maj7
8A	the	.	.	.	.	.	.	.	.
16B	se-	.	.	.	.	.	.	.	.
8c	-ven	.	.	.	.	.	.	.	.
[16d	seas	.	.	.	.	.	B	.	.
4d]	_	4r	.	.	.	.	.	.	.
4r	.	8.c	In	.	.	.	.	.	.
.	.	16B	the	.	.	.	.	.	.
=65	=65	=65	=65	=65	=65	=65	=65	=65	=65
2r	.	4c	Na-	1Amm	.	voice	.	123.883	A:min7
.	.	4A	-vy	.	.	.	b	.	.
8r	.	2r	.	.	.	.	.	.	.
8D	Yes	.	.	.	.	.	.	.	.
8D	you	.	.	.	.	.	.	.	.
8D	can	.	.	.	.	.	.	.	.
=66	=66	=66	=66	=66	=66	=66	=66	=66	=66
8A	put	2r	.	1DM	.	voice	.	125.79	D:maj
8B	your	.	.	.	.	.	.	.	.
8c	mind	.	.	.	.	.	.	.	.
16d	at	.	.	.	.	.	.	.	.
[16e	ease	.	.	.	.	.	B	.	.
4e]	_	4r	.	.	.	.	.	.	.
4r	.	8.c	In	.	.	.	.	.	.
.	.	16B	the	.	.	.	.	.	.
=67	=67	=67	=67	=67	=67	=67	=67	=67	=67
2r	.	4c	Na-	1Amm	newline	voice	.	127.698	A:min7
.	.	4A	-vy	.	.	.	b	.	.
8r	.	2r	.	.	.	.	.	.	.
8D	Come	.	.	.	.	.	.	.	.
8D	on	.	.	.	.	.	.	.	.
8D	be	.	.	.	.	.	.	.	.
=68	=68	=68	=68	=68	=68	=68	=68	=68	=68
8A	bold	2r	.	1DM	.	voice	.	129.602	D:maj
8B	and	.	.	.	.	.	.	.	.
16c	make	.	.	.	.	.	.	.	.
16d	a	.	.	.	.	.	.	.	.
[8e	stand	.	.	.	.	.	D	.	.
4e]	_	4r	.	.	.	.	.	.	.
4r	.	8.B	In	.	.	.	.	.	.
.	.	16A	the	.	.	.	.	.	.
=69	=69	=69	=69	=69	=69	=69	=69	=69	=69
2r	.	4B	Na-	1GM	.	voice	.	131.506	G:maj
.	.	4G	-vy	.	.	.	b	.	.
4r	.	4r	.	.	.	.	.	.	.
8g	Can't	8.d	In	.	.	.	.	.	.
8e	you	.	.	.	.	.	.	.	.
.	.	16c	the	.	.	.	.	.	.
=70	=70	=70	=70	=70	=70	=70	=70	=70	=70
8g	see	4B	Na-	1DM	.	voice	.	133.411	D:maj
8e	we	.	.	.	.	.	.	.	.
16g	need	4G	-vy	.	.	.	.	.	.
8g	a	.	.	.	.	.	.	.	.
[16e	hand	.	.	.	.	.	D	.	.
4e]	_	4r	.	.	.	.	.	.	.
4r	.	8.d	In	.	.	.	.	.	.
.	.	16c	the	.	.	.	.	.	.
=71	=71	=71	=71	=71	=71	=71	=71	=71	=71
2r	.	4B	Na-	1GMM	newline	voice	.	135.315	G:maj7
.	.	4G	-vy	.	.	.	b	.	.
8r	.	2r	.	.	.	.	.	.	.
8D	Come	.	.	.	.	.	.	.	.
8D	on,	.	.	.	.	.	.	.	.
8D	pro-	.	.	.	.	.	.	.	.
=72	=72	=72	=72	=72	=72	=72	=72	=72	=72
8G	-tect	2r	.	1GMM	.	voice	.	137.231	G:maj7
8A	the	.	.	.	.	.	.	.	.
16B	mo-	.	.	.	.	.	.	.	.
16c	-ther-	.	.	.	.	.	.	.	.
[8d	-land	.	.	.	.	.	D	.	.
4d]	_	4r	.	.	.	.	.	.	.
4r	.	8.c	In	.	.	.	.	.	.
.	.	16B	the	.	.	.	.	.	.
=73	=73	=73	=73	=73	=73	=73	=73	=73	=73
2r	.	4c	Na-	1Amm	.	voice	.	139.148	A:min7
.	.	4A	-vy	.	.	.	b	.	.
8r	.	2r	.	.	.	.	.	.	.
8D	Come	.	.	.	.	.	.	.	.
8D	on	.	.	.	.	.	.	.	.
8D	and	.	.	.	.	.	.	.	.
=74	=74	=74	=74	=74	=74	=74	=74	=74	=74
8A	join	2r	.	1DM	.	voice	.	141.064	D:maj
8B	your	.	.	.	.	.	.	.	.
16c	fel-	.	.	.	.	.	.	.	.
16d	-low	.	.	.	.	.	.	.	.
[8e	man	.	.	.	.	.	D	.	.
4e]	_	4r	.	.	.	.	.	.	.
4r	.	8.c	In	.	.	.	.	.	.
.	.	16B	the	.	.	.	.	.	.
=75	=75	=75	=75	=75	=75	=75	=75	=75	=75
2r	.	4c	Na-	1Amm	newline	voice	.	142.98	A:min7
.	.	4A	-vy	.	.	.	b	.	.
8r	.	2r	.	.	.	.	.	.	.
8D	Come	.	.	.	.	.	.	.	.
8D	on	.	.	.	.	.	.	.	.
8D	be	.	.	.	.	.	.	.	.
=76	=76	=76	=76	=76	=76	=76	=76	=76	=76
8A	bold	2r	.	1DM	.	voice	.	144.898	D:maj
8B	and	.	.	.	.	.	.	.	.
16c	make	.	.	.	.	.	.	.	.
16d	a	.	.	.	.	.	.	.	.
[8e	stand	.	.	.	.	.	D	.	.
4e]	_	4r	.	.	.	.	.	.	.
4r	.	8.B	In	.	.	.	.	.	.
.	.	16A	the	.	.	.	.	.	.
=77	=77	=77	=77	=77	=77	=77	=77	=77	=77
4r	.	4B	Na-	1GM	.	voice	.	146.815	G:maj
8g	In	4G	-vy	.	.	.	b	.	.
16e	the	.	.	.	.	.	.	.	.
[16g	na-	.	.	.	.	.	.	.	.
8g]	_	4r	.	.	.	.	.	.	.
8e	-vy	.	.	.	.	.	b	.	.
4r	.	8.d	In	.	.	.	.	.	.
.	.	16c	the	.	.	.	.	.	.
=78	=78	=78	=78	=78	=78	=78	=78	=78	=78
4r	.	4B	Na-	1DM	.	voice	.	148.733	D:maj
16g	In	4G	-vy	.	.	.	b	.	.
16e	the	.	.	.	.	.	.	.	.
[8a	na-	.	.	.	.	.	.	.	.
8a]	_	4r	.	.	.	.	.	.	.
8g	-vy	.	.	.	.	.	b	.	.
4r	.	4r	.	.	.	.	.	.	.
=79	=79	=79	=79	=79	=79	=79	=79	=79	=79
*>Letter>A	*>Letter>A	*>Letter>A	*>Letter>A	*>Letter>A	*>Letter>A	*>Letter>A	*>Letter>A	*>Letter>A	*>Letter>A
*>Label>Trans	*>Label>Trans	*>Label>Trans	*>Label>Trans	*>Label>Trans	*>Label>Trans	*>Label>Trans	*>Label>Trans	*>Label>Trans	*>Label>Trans
1r	.	1r	.	1N	newline	voice	.	150.65	N.C.
=80	=80	=80	=80	=80	=80	=80	=80	=80	=80
1r	.	1r	.	1N	.	voice	.	152.531	N.C.
=81	=81	=81	=81	=81	=81	=81	=81	=81	=81
1r	.	1r	.	1N	.	voice	.	154.413	N.C.
=82	=82	=82	=82	=82	=82	=82	=82	=82	=82
1r	.	1r	.	1N	.	voice	.	156.294	N.C.
=83	=83	=83	=83	=83	=83	=83	=83	=83	=83
1r	.	1r	.	1N	.	voice	.	158.175	N.C.
=84	=84	=84	=84	=84	=84	=84	=84	=84	=84
1r	.	1r	.	1N	.	voice	.	160.056	N.C.
=85	=85	=85	=85	=85	=85	=85	=85	=85	=85
*>Letter>E	*>Letter>E	*>Letter>E	*>Letter>E	*>Letter>E	*>Letter>E	*>Letter>E	*>Letter>E	*>Letter>E	*>Letter>E
*>Label>Bridge	*>Label>Bridge	*>Label>Bridge	*>Label>Bridge	*>Label>Bridge	*>Label>Bridge	*>Label>Bridge	*>Label>Bridge	*>Label>Bridge	*>Label>Bridge
1r	.	1r	.	1Gmm	newline	trumpet	.	161.937	G:min7
=86	=86	=86	=86	=86	=86	=86	=86	=86	=86
1r	.	1r	.	1Gmm	.	trumpet	.	163.838	G:min7
=87	=87	=87	=87	=87	=87	=87	=87	=87	=87
1r	.	1r	.	1Gmm	.	trumpet	.	165.739	G:min7
=88	=88	=88	=88	=88	=88	=88	=88	=88	=88
1r	.	1r	.	1Gmm	.	trumpet	.	167.64	G:min7
=89	=89	=89	=89	=89	=89	=89	=89	=89	=89
1r	.	1r	.	1Gmm	newline	trumpet	.	169.541	G:min7
=90	=90	=90	=90	=90	=90	=90	=90	=90	=90
1r	.	1r	.	1Gmm	.	trumpet	.	171.454	G:min7
=91	=91	=91	=91	=91	=91	=91	=91	=91	=91
1r	.	1r	.	1Gmm	.	trumpet	.	173.366	G:min7
=92	=92	=92	=92	=92	=92	=92	=92	=92	=92
1r	.	1r	.	1Gmm	.	trumpet	.	175.278	G:min7
=93	=93	=93	=93	=93	=93	=93	=93	=93	=93
1r	.	1r	.	1Gmm	newline	trumpet	.	177.191	G:min7
=94	=94	=94	=94	=94	=94	=94	=94	=94	=94
1r	.	1r	.	1Gmm	.	trumpet	.	179.09	G:min7
=95	=95	=95	=95	=95	=95	=95	=95	=95	=95
1r	.	1r	.	1Gmm	.	trumpet	.	180.989	G:min7
=96	=96	=96	=96	=96	=96	=96	=96	=96	=96
1r	.	1r	.	1Gmm	.	trumpet	.	182.888	G:min7
=97	=97	=97	=97	=97	=97	=97	=97	=97	=97
1r	.	1r	.	1Gmm	newline	trumpet	.	184.787	G:min7
=98	=98	=98	=98	=98	=98	=98	=98	=98	=98
1r	.	1r	.	1Gmm	.	trumpet	.	186.684	G:min7
=99	=99	=99	=99	=99	=99	=99	=99	=99	=99
1r	.	1r	.	1Gmm	.	trumpet	.	188.581	G:min7
=100	=100	=100	=100	=100	=100	=100	=100	=100	=100
1r	.	1r	.	1Gmm	.	trumpet	.	190.478	G:min7
=101	=101	=101	=101	=101	=101	=101	=101	=101	=101
1r	.	1r	.	1Gmm	newline	trumpet	.	192.374	G:min7
=102	=102	=102	=102	=102	=102	=102	=102	=102	=102
1r	.	2r	.	1Gmm	.	trumpet	.	194.233	G:min7
.	.	4r	.	.	.	.	.	.	.
.	.	8.d	In	.	.	.	.	.	.
.	.	16c	the	.	.	.	.	.	.
=103	=103	=103	=103	=103	=103	=103	=103	=103	=103
*>Letter>D	*>Letter>D	*>Letter>D	*>Letter>D	*>Letter>D	*>Letter>D	*>Letter>D	*>Letter>D	*>Letter>D	*>Letter>D
*>Label>Chorus	*>Label>Chorus	*>Label>Chorus	*>Label>Chorus	*>Label>Chorus	*>Label>Chorus	*>Label>Chorus	*>Label>Chorus	*>Label>Chorus	*>Label>Chorus
2r	.	4B	Na-	1GMM	newline	voice	.	196.093	G:maj7
.	.	4G	-vy	.	.	.	b	.	.
8r	.	2r	.	.	.	.	.	.	.
8D	Yes	.	.	.	.	.	.	.	.
8D	you	.	.	.	.	.	.	.	.
8D	can	.	.	.	.	.	.	.	.
=104	=104	=104	=104	=104	=104	=104	=104	=104	=104
8G	sail	2r	.	1GMM	.	voice	.	197.974	G:maj7
8A	the	.	.	.	.	.	.	.	.
16B	se-	.	.	.	.	.	.	.	.
8c	-ven	.	.	.	.	.	.	.	.
[16d	seas	.	.	.	.	.	B	.	.
4d]	_	4r	.	.	.	.	.	.	.
4r	.	8.c	In	.	.	.	.	.	.
.	.	16B	the	.	.	.	.	.	.
=105	=105	=105	=105	=105	=105	=105	=105	=105	=105
2r	.	4c	Na-	1Amm	.	voice	.	199.855	A:min7
.	.	4A	-vy	.	.	.	b	.	.
8r	.	2r	.	.	.	.	.	.	.
8D	Yes	.	.	.	.	.	.	.	.
8D	you	.	.	.	.	.	.	.	.
8D	can	.	.	.	.	.	.	.	.
=106	=106	=106	=106	=106	=106	=106	=106	=106	=106
8A	put	2r	.	1DM	.	voice	.	201.737	D:maj
8B	your	.	.	.	.	.	.	.	.
8c	mind	.	.	.	.	.	.	.	.
16d	at	.	.	.	.	.	.	.	.
[16e	ease	.	.	.	.	.	B	.	.
4e]	_	4r	.	.	.	.	.	.	.
4r	.	8.c	In	.	.	.	.	.	.
.	.	16B	the	.	.	.	.	.	.
=107	=107	=107	=107	=107	=107	=107	=107	=107	=107
2r	.	4c	Na-	1Amm	newline	voice	.	203.618	A:min7
.	.	4A	-vy	.	.	.	b	.	.
8r	.	2r	.	.	.	.	.	.	.
8D	Come	.	.	.	.	.	.	.	.
8D	on	.	.	.	.	.	.	.	.
8D	be	.	.	.	.	.	.	.	.
=108	=108	=108	=108	=108	=108	=108	=108	=108	=108
8A	bold	2r	.	1DM	.	voice	.	205.492	D:maj
8B	and	.	.	.	.	.	.	.	.
16c	make	.	.	.	.	.	.	.	.
16d	a	.	.	.	.	.	.	.	.
[8e	stand__	.	.	.	.	.	D	.	.
4e]	_	4r	.	.	.	.	.	.	.
4r	.	8.B	In	.	.	.	.	.	.
.	.	16A	the	.	.	.	.	.	.
=109	=109	=109	=109	=109	=109	=109	=109	=109	=109
2r	.	4B	Na-	1GM	.	voice	.	207.365	G:maj
.	.	4G	-vy	.	.	.	b	.	.
4r	.	4r	.	.	.	.	.	.	.
8g	Can't	8.d	In	.	.	.	.	.	.
8e	you	.	.	.	.	.	.	.	.
.	.	16c	the	.	.	.	.	.	.
=110	=110	=110	=110	=110	=110	=110	=110	=110	=110
8g	see	4B	Na-	1DM	.	voice	.	209.239	D:maj
8e	we	.	.	.	.	.	.	.	.
16g	need	4G	-vy	.	.	.	.	.	.
8g	a	.	.	.	.	.	.	.	.
[16e	hand	.	.	.	.	.	D	.	.
4e]	_	4r	.	.	.	.	.	.	.
4r	.	8.d	In	.	.	.	.	.	.
.	.	16c	the	.	.	.	.	.	.
=111	=111	=111	=111	=111	=111	=111	=111	=111	=111
*>Label>>Fadeout	*>Label>>Fadeout	*>Label>>Fadeout	*>Label>>Fadeout	*>Label>>Fadeout	*>Label>>Fadeout	*>Label>>Fadeout	*>Label>>Fadeout	*>Label>>Fadeout	*>Label>>Fadeout
2r	.	4B	Na-	1GMM	newline	voice	.	211.113	G:maj7
.	.	4G	-vy	.	.	.	b	.	.
4r	.	2r	.	.	.	.	.	.	.
8g	Come	.	.	.	.	.	.	.	.
8e	pro-	.	.	.	.	.	.	.	.
=112	=112	=112	=112	=112	=112	=112	=112	=112	=112
8g	-tect	2r	.	1GMM	.	voice	.	213.008	G:maj7
8e	the	.	.	.	.	.	.	.	.
16g	mo-	.	.	.	.	.	.	.	.
8g	-ther-	.	.	.	.	.	.	.	.
[16e	-land_	.	.	.	.	.	D	.	.
4e]	_	4r	.	.	.	.	.	.	.
4r	.	8.c	In	.	.	.	.	.	.
.	.	16B	the	.	.	.	.	.	.
=113	=113	=113	=113	=113	=113	=113	=113	=113	=113
2r	.	4c	Na-	1Amm	.	voice	.	214.904	A:min7
.	.	4A	-vy	.	.	.	b	.	.
8r	.	2r	.	.	.	.	.	.	.
8e	Come	.	.	.	.	.	.	.	.
8g	on	.	.	.	.	.	.	.	.
8e	and	.	.	.	.	.	.	.	.
=114	=114	=114	=114	=114	=114	=114	=114	=114	=114
8g	join	2r	.	1DM	.	voice	.	216.799	D:maj
8e	your	.	.	.	.	.	.	.	.
16g	fel-	.	.	.	.	.	.	.	.
8e	-low	.	.	.	.	.	.	.	.
[16g	men	.	.	.	.	.	.	.	.
4g]	_	4r	.	.	.	.	.	.	.
4r	.	8.c	In	.	.	.	.	.	.
.	.	16B	the	.	.	.	.	.	.
=115	=115	=115	=115	=115	=115	=115	=115	=115	=115
1r	.	4c	Na-	1Amm	newline	voice	.	218.695	A:min7
.	.	4A	-vy	.	.	.	D	.	.
.	.	2r	.	.	.	.	.	.	.
=116	=116	=116	=116	=116	=116	=116	=116	=116	=116
1r	.	1r	.	1DM	.	voice	.	220.022	D:maj
=117	=117	=117	=117	=117	=117	=117	=117	=117	=117
1r	.	1r	.	1GM	.	voice	.	221.349	G:maj
=118	=118	=118	=118	=118	=118	=118	=118	=118	=118
1r	.	1r	.	1DM	.	voice	.	222.676	D:maj
r;	.	r;	.	1r;	.	r	.	224.003	N.C.
r;	.	r;	.	1r;	.	r	.	226.247	N.C.
*-	*-	*-	*-	*-	*-	*-	*-	*-	*-
!!!BillboardChartDate: 1979/05/12
!!!BillboardPeak: 3
!!!BillboardWeeksOnChart: 18
!!!COC: Village People
!!!ENC: Nathaniel Condit-Schultz
!!!EST: Awating manual error checking and editing.
!!!OTL: In The Navy
!!!RDF**chordsym: original McGill chord annotation + (implied pitch class set, with bass pitch in first position)
!!!RDF**harmony: **recip + pitch class of root + harmonic quality
!!!RDF**leadinstrument: original McGill primary instrumentation annotation
!!!RDF**phrase: newline = linebreak in original McGill transcription
!!!RDF**timestamp: McGill audio timestamp in seconds
!!!RDT: 2017/01/12/
!!!SampleActualRank: 5
!!!SampleID#: 0306
!!!SampleTargetRank: 4
